project/images/official/editable/520.svg

<?xml version="1.0" encoding="UTF-8" standalone="no"?>
<svg
   width="89.387917pt"
   height="35.776272pt"
   viewBox="0 0 89.387917 35.776272"
   version="1.1"
   id="svg3513"
   xmlns="http://www.w3.org/2000/svg"
   xmlns:svg="http://www.w3.org/2000/svg">
  <defs
     id="defs3517" />
  <g
     id="layer2"
     style="display:inline">
    <rect
       style="fill:#ffffff;stroke:none;stroke-width:0;stroke-linecap:square;stroke-miterlimit:4;stroke-dasharray:none;stroke-opacity:1"
       id="rect3621"
       width="89.387917"
       height="35.776272"
       x="0"
       y="8.8817842e-16" />
    <rect
       style="fill:none;stroke:#000000;stroke-width:0.201092;stroke-linecap:square;stroke-miterlimit:4;stroke-dasharray:none;stroke-opacity:1"
       id="rect3621-4"
       width="88.039619"
       height="34.468613"
       x="0.72990781"
       y="0.729029" />
  </g>
  <g
     id="layer1"
     style="display:inline">
    <g
       id="surface1"
       transform="translate(3.6937156,4.5379934)">
      <path
         style="fill:#211e1e;fill-opacity:1;fill-rule:nonzero;stroke:none"
         d="M 5.9375,23.65625 H 1.902344 L 1.507812,21.050781 0.324219,20.015625 v -3.625 H 1.140625 C 1.175781,16.273438 1.21875,16.101562 1.25,15.988281 l 0.230469,-0.933593 c 0.0625,-0.246094 0.148437,-0.523438 0.269531,-0.75 0.125,-0.234376 0.304688,-0.464844 0.53125,-0.601563 0.117188,-0.0625 0.265625,-0.121094 0.390625,-0.164063 0.234375,-0.07422 0.59375,-0.167968 0.839844,-0.230468 1.269531,-0.324219 3.359375,-0.839844 4.636719,-1.121094 2.191406,-0.472656 4.503906,-0.839844 6.722656,-1.132812 2.171875,-0.296876 4.351562,-0.53125 6.535156,-0.71875 0.109375,-0.0078 0.21875,-0.02344 0.324219,-0.03125 l 10.996093,-8.5 0.460938,-0.375 C 33.507812,1.191406 33.867188,1.007812 34.242188,0.863281 34.59375,0.726562 34.972656,0.625 35.347656,0.546875 36.085938,0.402344 37.324219,0.332031 38.078125,0.292969 L 42.53125,0.0859375 c 1.429688,-0.0429687 3.117188,-0.0273437 4.542969,-0.0078125 1.667969,0.03125 3.484375,0.074219 5.144531,0.167969 0.496094,0.027344 3.417969,0.191406 3.914062,0.199218 0.351563,0.007813 0.96875,0.027344 1.3125,0.085938 0.230469,0.042969 0.460938,0.117188 0.683594,0.195312 0.285156,0.109376 0.582032,0.257813 0.824219,0.453126 0.175781,0.136718 0.441406,0.4375 0.582031,0.601562 l 0.511719,0.554688 5.621094,6.542968 10.539062,0.515625 0.609375,0.015625 c 0.226563,0.00391 0.558594,0.019532 0.789063,0.070313 0.214843,0.035156 0.417969,0.109375 0.601562,0.207031 0.425781,0.222656 0.761719,0.605469 1.019531,1 0.179688,0.28125 0.347657,0.609375 0.40625,0.933594 0.02734,0.15625 0.03125,0.34375 0.03125,0.503906 v 3.640625 l 1.050782,0.910156 v 2.980469 l -1.886719,1.78125 h 1.417969 v 1.15625 h -4.226563 l -1.101562,1.0625 h -4.371094 c 0.0039,-0.07031 0.02734,-0.269531 0.04297,-0.34375 0.01953,-0.214844 0.05078,-0.523438 0.0625,-0.738281 C 70.703125,21.34375 70.34375,20.132812 69.726562,19.070312 69.082031,17.949219 68.160156,17.015625 67.03125,16.375 65.964844,15.765625 64.75,15.433594 63.515625,15.441406 c -1.25,0.0078 -2.480469,0.351563 -3.554687,1 -1.050782,0.617188 -1.925782,1.5 -2.515626,2.5625 -0.597656,1.089844 -0.867187,2.355469 -0.917968,3.589844 -0.0078,0.179688 -0.0078,0.386719 0.0078,0.570312 0.01172,0.140626 0.04297,0.347657 0.07031,0.492188 H 19.894531 c -0.0078,-0.179688 -0.01563,-0.445312 -0.01563,-0.625 v -0.582031 c -0.01563,-1.183594 -0.28125,-2.375 -0.847656,-3.425781 -0.589844,-1.089844 -1.488281,-1.972657 -2.558594,-2.597657 -1.074218,-0.632812 -2.296875,-0.976562 -3.539062,-0.96875 -1.265625,0.0078 -2.5,0.386719 -3.597656,1.019531 -1.042969,0.59375 -1.960938,1.421876 -2.570313,2.453126 -0.621094,1.058593 -0.90625,2.277343 -0.90625,3.5 0,0.195312 0.00781,0.386718 0.015625,0.582031 0.011719,0.1875 0.042969,0.457031 0.0625,0.644531"
         id="path3490" />
      <path
         style="fill:#211e1e;fill-opacity:1;fill-rule:nonzero;stroke:none"
         d="m 12.90625,16.804688 c 3.160156,-0.0078 5.738281,2.535156 5.773438,5.695312 0.04297,3.222656 -2.539063,5.878906 -5.765626,5.875 -3.222656,0 -5.796874,-2.671875 -5.75,-5.890625 0.046876,-3.144531 2.597657,-5.679687 5.742188,-5.679687"
         id="path3492" />
      <path
         style="fill:#211e1e;fill-opacity:1;fill-rule:nonzero;stroke:none"
         d="m 63.539062,16.769531 c 3.207032,-0.0078 5.828126,2.578125 5.839844,5.792969 0.0039,3.230469 -2.625,5.867188 -5.855468,5.847656 -3.21875,-0.02344 -5.789063,-2.664062 -5.757813,-5.875 0.02734,-3.183594 2.589844,-5.761718 5.773437,-5.765625"
         id="path3494" />
      <path
         style="fill:#ffffff;fill-opacity:1;fill-rule:nonzero;stroke:none"
         d="m 12.9375,20.550781 c 1.105469,0 2.035156,0.855469 2.054688,1.953125 0.02344,1.148438 -0.910157,2.082032 -2.0625,2.074219 -1.15625,-0.0039 -2.074219,-0.960937 -2.03125,-2.109375 0.04297,-1.085938 0.957031,-1.917969 2.039062,-1.917969"
         id="path3496" />
      <path
         style="fill:#ffffff;fill-opacity:1;fill-rule:nonzero;stroke:none"
         d="m 63.539062,20.535156 c 1.128907,-0.0078 2.074219,0.882813 2.082032,2.019532 0.01563,1.15625 -0.929688,2.097656 -2.089844,2.074218 -1.140625,-0.02344 -2.039062,-0.976562 -2,-2.109375 0.02734,-1.101562 0.910156,-1.976562 2.007812,-1.984375"
         id="path3498" />
      <path
         style="fill:#ffffff;fill-opacity:1;fill-rule:nonzero;stroke:none"
         d="M 5.320312,19.65625 H 2.246094 v 0.386719 l 3.074218,0.375 V 19.65625"
         id="path3500" />
      <path
         style="fill:#ffffff;fill-opacity:1;fill-rule:nonzero;stroke:none"
         d="M 39.40625,19.65625 H 21.289062 v 0.761719 H 39.40625 V 19.65625"
         id="path3502" />
      <path
         style="fill:#ffffff;fill-opacity:1;fill-rule:nonzero;stroke:none"
         d="m 55.28125,19.65625 v 0.761719 H 43.609375 V 19.65625 H 55.28125"
         id="path3504" />
      <path
         style="fill:#ffffff;fill-opacity:1;fill-rule:nonzero;stroke:none"
         d="M 41.46875,10.308594 H 24.246094 L 34.753906,2.078125 43.351562,1.648438 41.46875,10.308594"
         id="path3506" />
      <path
         style="fill:#ffffff;fill-opacity:1;fill-rule:nonzero;stroke:none"
         d="m 43.609375,10.308594 1.917969,-8.648438 11.316406,0.46875 4.566406,8.179688 H 43.609375"
         id="path3508" />
      <path
         style="fill:#ffffff;fill-opacity:1;fill-rule:nonzero;stroke:none"
         d="m 78.4375,19.65625 v 0.292969 l -7.132812,0.46875 V 19.65625 H 78.4375"
         id="path3510" />
    </g>
  </g>
</svg>

<?xml version="1.0" encoding="UTF-8"?>
<svg xmlns="http://www.w3.org/2000/svg" xmlns:xlink="http://www.w3.org/1999/xlink" width="81pt" height="29pt" viewBox="0 0 81 29" version="1.1">
<g id="surface1">
<path style=" stroke:none;fill-rule:nonzero;fill:rgb(13.729858%,12.159729%,12.548828%);fill-opacity:1;" d="M 5.9375 23.65625 L 1.902344 23.65625 L 1.507812 21.050781 L 0.324219 20.015625 L 0.324219 16.390625 L 1.140625 16.390625 C 1.175781 16.273438 1.21875 16.101562 1.25 15.988281 L 1.480469 15.054688 C 1.542969 14.808594 1.628906 14.53125 1.75 14.304688 C 1.875 14.070312 2.054688 13.839844 2.28125 13.703125 C 2.398438 13.640625 2.546875 13.582031 2.671875 13.539062 C 2.90625 13.464844 3.265625 13.371094 3.511719 13.308594 C 4.78125 12.984375 6.871094 12.46875 8.148438 12.1875 C 10.339844 11.714844 12.652344 11.347656 14.871094 11.054688 C 17.042969 10.757812 19.222656 10.523438 21.40625 10.335938 C 21.515625 10.328125 21.625 10.3125 21.730469 10.304688 L 32.726562 1.804688 L 33.1875 1.429688 C 33.507812 1.191406 33.867188 1.007812 34.242188 0.863281 C 34.59375 0.726562 34.972656 0.625 35.347656 0.546875 C 36.085938 0.402344 37.324219 0.332031 38.078125 0.292969 L 42.53125 0.0859375 C 43.960938 0.0429688 45.648438 0.0585938 47.074219 0.078125 C 48.742188 0.109375 50.558594 0.152344 52.21875 0.246094 C 52.714844 0.273438 55.636719 0.4375 56.132812 0.445312 C 56.484375 0.453125 57.101562 0.472656 57.445312 0.53125 C 57.675781 0.574219 57.90625 0.648438 58.128906 0.726562 C 58.414062 0.835938 58.710938 0.984375 58.953125 1.179688 C 59.128906 1.316406 59.394531 1.617188 59.535156 1.78125 L 60.046875 2.335938 L 65.667969 8.878906 L 76.207031 9.394531 L 76.816406 9.410156 C 77.042969 9.414062 77.375 9.429688 77.605469 9.480469 C 77.820312 9.515625 78.023438 9.589844 78.207031 9.6875 C 78.632812 9.910156 78.96875 10.292969 79.226562 10.6875 C 79.40625 10.96875 79.574219 11.296875 79.632812 11.621094 C 79.660156 11.777344 79.664062 11.964844 79.664062 12.125 L 79.664062 15.765625 L 80.714844 16.675781 L 80.714844 19.65625 L 78.828125 21.4375 L 80.246094 21.4375 L 80.246094 22.59375 L 76.019531 22.59375 L 74.917969 23.65625 L 70.546875 23.65625 C 70.550781 23.585938 70.574219 23.386719 70.589844 23.3125 C 70.609375 23.097656 70.640625 22.789062 70.652344 22.574219 C 70.703125 21.34375 70.34375 20.132812 69.726562 19.070312 C 69.082031 17.949219 68.160156 17.015625 67.03125 16.375 C 65.964844 15.765625 64.75 15.433594 63.515625 15.441406 C 62.265625 15.449219 61.035156 15.792969 59.960938 16.441406 C 58.910156 17.058594 58.035156 17.941406 57.445312 19.003906 C 56.847656 20.09375 56.578125 21.359375 56.527344 22.59375 C 56.519531 22.773438 56.519531 22.980469 56.535156 23.164062 C 56.546875 23.304688 56.578125 23.511719 56.605469 23.65625 L 19.894531 23.65625 C 19.886719 23.476562 19.878906 23.210938 19.878906 23.03125 L 19.878906 22.449219 C 19.863281 21.265625 19.597656 20.074219 19.03125 19.023438 C 18.441406 17.933594 17.542969 17.050781 16.472656 16.425781 C 15.398438 15.792969 14.175781 15.449219 12.933594 15.457031 C 11.667969 15.464844 10.433594 15.84375 9.335938 16.476562 C 8.292969 17.070312 7.375 17.898438 6.765625 18.929688 C 6.144531 19.988281 5.859375 21.207031 5.859375 22.429688 C 5.859375 22.625 5.867188 22.816406 5.875 23.011719 C 5.886719 23.199219 5.917969 23.46875 5.9375 23.65625 "/>
<path style=" stroke:none;fill-rule:nonzero;fill:rgb(13.729858%,12.159729%,12.548828%);fill-opacity:1;" d="M 12.90625 16.804688 C 16.066406 16.796875 18.644531 19.339844 18.679688 22.5 C 18.722656 25.722656 16.140625 28.378906 12.914062 28.375 C 9.691406 28.375 7.117188 25.703125 7.164062 22.484375 C 7.210938 19.339844 9.761719 16.804688 12.90625 16.804688 "/>
<path style=" stroke:none;fill-rule:nonzero;fill:rgb(13.729858%,12.159729%,12.548828%);fill-opacity:1;" d="M 63.539062 16.769531 C 66.746094 16.761719 69.367188 19.347656 69.378906 22.5625 C 69.382812 25.792969 66.753906 28.429688 63.523438 28.410156 C 60.304688 28.386719 57.734375 25.746094 57.765625 22.535156 C 57.792969 19.351562 60.355469 16.773438 63.539062 16.769531 "/>
<path style=" stroke:none;fill-rule:nonzero;fill:rgb(100%,100%,100%);fill-opacity:1;" d="M 12.9375 20.550781 C 14.042969 20.550781 14.972656 21.40625 14.992188 22.503906 C 15.015625 23.652344 14.082031 24.585938 12.929688 24.578125 C 11.773438 24.574219 10.855469 23.617188 10.898438 22.46875 C 10.941406 21.382812 11.855469 20.550781 12.9375 20.550781 "/>
<path style=" stroke:none;fill-rule:nonzero;fill:rgb(100%,100%,100%);fill-opacity:1;" d="M 63.539062 20.535156 C 64.667969 20.527344 65.613281 21.417969 65.621094 22.554688 C 65.636719 23.710938 64.691406 24.652344 63.53125 24.628906 C 62.390625 24.605469 61.492188 23.652344 61.53125 22.519531 C 61.558594 21.417969 62.441406 20.542969 63.539062 20.535156 "/>
<path style=" stroke:none;fill-rule:nonzero;fill:rgb(100%,100%,100%);fill-opacity:1;" d="M 5.320312 19.65625 L 2.246094 19.65625 L 2.246094 20.042969 L 5.320312 20.417969 L 5.320312 19.65625 "/>
<path style=" stroke:none;fill-rule:nonzero;fill:rgb(100%,100%,100%);fill-opacity:1;" d="M 39.40625 19.65625 L 21.289062 19.65625 L 21.289062 20.417969 L 39.40625 20.417969 L 39.40625 19.65625 "/>
<path style=" stroke:none;fill-rule:nonzero;fill:rgb(100%,100%,100%);fill-opacity:1;" d="M 55.28125 19.65625 L 55.28125 20.417969 L 43.609375 20.417969 L 43.609375 19.65625 L 55.28125 19.65625 "/>
<path style=" stroke:none;fill-rule:nonzero;fill:rgb(100%,100%,100%);fill-opacity:1;" d="M 41.46875 10.308594 L 24.246094 10.308594 L 34.753906 2.078125 L 43.351562 1.648438 L 41.46875 10.308594 "/>
<path style=" stroke:none;fill-rule:nonzero;fill:rgb(100%,100%,100%);fill-opacity:1;" d="M 43.609375 10.308594 L 45.527344 1.660156 L 56.84375 2.128906 L 61.410156 10.308594 L 43.609375 10.308594 "/>
<path style=" stroke:none;fill-rule:nonzero;fill:rgb(100%,100%,100%);fill-opacity:1;" d="M 78.4375 19.65625 L 78.4375 19.949219 L 71.304688 20.417969 L 71.304688 19.65625 L 78.4375 19.65625 "/>
</g>
</svg>
